X:1
T:Title
%%score { ( 1 3 ) | ( 2 4 ) }
L:1/8
M:4/4
K:Ab
V:1 treble nm="Grand Piano"
V:3 treble 
V:2 bass 
V:4 bass 
V:1
 z4 z2[Q:1/4=104] E2 | A2 GA E2 F2 | C4 E2 [CE]2 | [CA]2 [CA]2 [DB]2 [DB]2 | [Ec]6 A2 | %5
 c2 _c=c G2 A2 | F4 G2 A2 | B2 B2 [Ac]2 [A=d]2 | [Ge]6 E2 | E2 d2 c2 B2 | A4 z4 | E2 d2 c2 B2 | %12
 c6 z2 | B2 G2 A2 c2 | e2 z2 z4 | [Ae]2 A2 c2 B2 |[M:3/4] [A,CA]6 |[M:1/4] z2 | %18
[M:4/4] z2 [B,G]2 [B,G]2 [EGd]2 | [EAc]4 [CEA]2 z2 | z2 [FA]2 [FB]2 [FB]2 |[M:3/4] c6 |[M:1/4] c2 | %23
[M:4/4] B2 G2 A2 c2 | e2 z2 z4 | [Ae]2 A2 c2 B2 |[M:3/4] [CA]6 |] %27
V:2
 z4 z2 E,2 | A,2 G,A, E,2 F,2 | C,4 E,2 [A,,A,]2 | [A,,A,]2 [A,,A,]2 [E,G,]2 [E,G,]2 | %4
 [A,,A,]6 A,2 | C2 _C=C G,2 A,2 | F,4 G,2 A,2 | [G,B,E]2 [G,B,E]2 [F,A,]2 [F,A,]2 | [E,B,]6 z2 | %9
 E,2 [G,B,D]2 [G,B,D]2 [G,B,D]2 | A,,2 [E,A,]2 [E,A,C]2 [E,A,C]2 | E,2 [G,B,D]2 [G,B,D]2 [G,B,D]2 | %12
 A,,2 [E,A,]2 [E,A,]2 [A,CE]2 | [B,DE]2 [B,DE]2 [A,CE]2 [A,E]2 | %14
 B,2[K:treble] E2 [A,EA]2[K:bass] [D,D]2 | [E,C]2 [F,CF]2 [E,A,E]2 [E,G,D]2 |[M:3/4] A,,6 | %17
[M:1/4][K:treble] e2 |[M:4/4] e6[K:bass] z2 | A,4 A,2[K:treble] A2 | %20
 A2[K:bass] [D,D]2 [D,D]2 [D,A,]2 |[M:3/4] [A,,A,]2 [A,,A,]2 [A,,A,]2 |[M:1/4] [A,CE]2 | %23
[M:4/4] [B,DE]2 [B,DE]2 [A,CE]2 [A,E]2 | B,2 z2 [A,E]2 [D,D]2 | [E,C]2 [F,CF]2 [E,A,E]2 [E,G,D]2 | %26
[M:3/4] [A,,A,]6 |] %27
V:3
 x8 | x8 | x8 | x8 | x8 | x8 | x8 | x8 | x8 | x8 | z2 C2 E2 E2 | x8 | z2 C2 C2 c2 | x8 | %14
 G2- [GB]2 c2 [Af]2 | x8 |[M:3/4] x6 |[M:1/4] x2 |[M:4/4] x8 | x8 | x8 |[M:3/4] E2 E2 E2 | %22
[M:1/4] x2 |[M:4/4] x8 | G2- [EGB]2 [Ac]2 [Af]2 | x8 |[M:3/4] x6 |] %27
V:4
 x8 | x8 | x8 | x8 | x8 | x8 | x8 | x8 | x8 | x8 | x8 | x8 | x8 | x8 | E,4[K:treble] z4[K:bass] | %15
 x8 |[M:3/4] x6 |[M:1/4][K:treble] x2 |[M:4/4] z2[K:bass] E,2 E,2 E,2 | x6[K:treble] x2 | %20
 x2[K:bass] x6 |[M:3/4] x6 |[M:1/4] x2 |[M:4/4] x8 | E,4 z4 | x8 |[M:3/4] x6 |] %27

